packages/assets/application-icons/07.Gift.svg

<?xml version="1.0" encoding="UTF-8"?>
<svg width="24px" height="24px" viewBox="0 0 24 24" version="1.1" xmlns="http://www.w3.org/2000/svg" xmlns:xlink="http://www.w3.org/1999/xlink">
    <title>07.Gift</title>
    <g id="Page-1" stroke="none" stroke-width="1" fill="none" fill-rule="evenodd">
        <g id="Artboard" transform="translate(-66.000000, -135.000000)" fill="#000000" fill-rule="nonzero">
            <g id="07.Gift" transform="translate(66.000000, 135.000000)">
                <path d="M19.7142857,7.17857143 L15.9725523,7.17857143 C16.4707666,6.73660714 16.7881773,6.10982143 16.7881773,5.41071429 C16.7881773,4.08080357 15.6511238,3 14.2529095,3 C13.4252309,3 12.7301416,3.38973214 12.2881773,4.10089286 C11.8462131,3.38973214 11.1511238,3 10.3234452,3 C8.92523091,3 7.78817734,4.08080357 7.78817734,5.41071429 C7.78817734,6.10982143 8.1015702,6.73660714 8.60380234,7.17857143 L4.21606437,7.17857143 C3.50490365,7.17857143 3,7.753125 3,8.46428571 L3,9.26785714 C3,9.35625 3.07232143,9.42857143 3.16071429,9.42857143 L20.8392857,9.42857143 C20.9276786,9.42857143 21,9.35625 21,9.26785714 L21,8.46428571 C21,7.753125 20.4254464,7.17857143 19.7142857,7.17857143 Z M14.2529095,4.125 C15.0002309,4.125 15.6069273,4.69955357 15.6069273,5.41071429 C15.6069273,6.121875 15.0002309,6.69642857 14.2529095,6.69642857 L12.8988916,6.69642857 C12.8988916,4.76785714 13.5055881,4.125 14.2529095,4.125 Z M10.3234452,4.125 C11.0707666,4.125 11.6774631,4.76785714 11.6774631,6.69642857 L10.3234452,6.69642857 C9.57612377,6.69642857 8.96942734,6.121875 8.96942734,5.41071429 C8.96942734,4.69955357 9.57612377,4.125 10.3234452,4.125 Z M4.00097217,10.7946429 L4.01401883,19.7142857 C4.01401883,20.4214286 4.59259025,21 5.29973311,21 L11.7256773,21 L11.7256773,10.4732143 L4.32240074,10.4732143 C4.14561502,10.4732143 4.00097217,10.6178571 4.00097217,10.7946429 Z M19.6810345,10.4732143 L12.8506773,10.4732143 L12.8506773,21 L18.7167488,21 C19.4238916,21 20.0024631,20.4214286 20.0024631,19.7142857 L20.0024631,10.7946429 C20.0024631,10.6178571 19.8578202,10.4732143 19.6810345,10.4732143 Z" id="Gift"></path>
            </g>
        </g>
    </g>
</svg>

<svg width="24" height="24" viewBox="0 0 24 24" xmlns="http://www.w3.org/2000/svg"><path d="M19.714 7.179h-3.741a2.36 2.36 0 0 0 .815-1.768C16.788 4.08 15.651 3 14.253 3c-.828 0-1.523.39-1.965 1.1-.442-.71-1.137-1.1-1.965-1.1-1.398 0-2.535 1.08-2.535 2.41 0 .7.314 1.327.816 1.769H4.216C3.505 7.179 3 7.753 3 8.464v.804c0 .088.072.16.16.16h17.68c.088 0 .16-.072.16-.16v-.804c0-.71-.575-1.285-1.286-1.285Zm-5.461-3.054c.747 0 1.354.575 1.354 1.286 0 .71-.607 1.285-1.354 1.285h-1.354c0-1.928.607-2.571 1.354-2.571Zm-3.93 0c.748 0 1.354.643 1.354 2.571h-1.354c-.747 0-1.354-.574-1.354-1.285s.607-1.286 1.354-1.286Zm-6.322 6.67.013 8.92A1.29 1.29 0 0 0 5.3 21h6.426V10.473H4.322a.322.322 0 0 0-.321.322Zm15.68-.322h-6.83V21h5.866a1.29 1.29 0 0 0 1.285-1.286v-8.92a.322.322 0 0 0-.321-.32Z" fill="#000" fill-rule="nonzero"/></svg>
